!!!SOCIAL_FUNCTION:	songs of games played in a ceremonial manner
!!!PDT:	1932
!!!OTL: No_25_Closing_Song_of_Dance.krn
!!!REG: Wisconsin
!!!LANG: Non-Tone
!!!LING_GROUP: Algonquin
**kern
*staff1
=1-
*clefF4
*k[f#]
*M2/4
4r
8r
16r
16B\
=2!|:
8.B\L
16F#\Jk
8F#\L
8G\J
=3
8E\L
8E\J
8E\
16r
16E\
=4
4E\
8E\
16r
16B\
=5
8.B\L
16F#\Jk
8F#\L
8G\J
=6
8E\L
8E\J
8E\
32E\
32r
16E\
=7
4E\
16E\
16r
8G\
=8
8G\L
8F#\J
8G\
16r
16E\
=9
8E\L
8E\J
16E\
16r
8E\
=10
8E\L
8F#\J
8G\
16r
16E\
=11
8E\L
8E\J
16E\
16r
8E\
=12
8E\L
8F#\J
8G\
16r
16E\
=13
8E\L
8E\J
16E\
16r
8E\
=14
8E\L
8F#\J
8G\
16r
16E\
=15
8E\L
8E\J
8E\
16r
16B\
=16:|!
8E\L
8E\J
8E\
8r
==
*-
